X:21
T:Scottish de Stockfish
R:Scottish
C:
Q:1/2=100
I:abc2nwc
M:4/4
L:1/8
K:C
AB cd e3f|ed ce d4|[1e2e2A4|Bc dc B4:|[2e2e2A3c|BA GB A4
|:e2e2g3e|d2c2d4|e2e2A4|Bc dc B4|e2e2g3e|d2c2d4|e2e2A3c|BA GB A4:|
|:"^2"e2A2A3c|B2G2A4|AB cd e2ee|d2cd e2e2|
e2A2A3c|B2G2A4|AB cd e2dc|B2c2A4:|
|:Ac Ac ec ec|Ac Ac ec ec|Bc Bc d3B|c2d2e2e2Ac Ac ec ec|
Ac Ac ec ec|Bc Bc d3B|c2B2A4:|
%%footer $D   Galouvielle-MBe 2005 \nScottish --
